X: 20735
T: Johnny Doherty's
R: reel
M: 4/4
K: Dmajor
|:AG|FDAF GFED|FDAF G3A|FDAF GFEc|dBcA G3A|
FDAF GFED|FDAF G3A|FDAF GFEc|dBcA G3A:|
|:A3B cAGE|A3B cdec|A3B cAGE|dBcA G2 G2|
A3B cAGE|A3B cd e2|f3d e3c|dcAF G2 G2:|

